X: 1
T: Katharina-Schottisch FCBb 
T:Hanny Christen. Bd.VIII Zug, Luzern, Uri I. S.176 (wz09772) orig. F,C,Bb-Dur
T: Tänze auch Schüpfheim (Luzern); 1952 (hc)
M:2/4
L:1/8
K:F 
"F"ca a/g/f | "Bb"db b/a/g | "C7"c'c' e2 | "F"c'c'f2 | ca a/g/f |\
 "Bb"db b/a/g | "C7"c'c' e>g | "F"ff fz :: [K:C]
"G7"f/f/f gf | "C"e/e/e ge | "G7"fb da | "C"ca g/^f/g | "G7"f/f/f gf |\
 "C"e/e/e ge | "G7"bf/a/ gB | "C"ce cz :: [K:Bb] [L:1/4]
"Bb"d>f | b>f | "F7"a/g/ g/>g/ | e>d | c>f | a>g | "Bb"g/f/ f/>f/ | d>d | 
d>f | b>a | "Eb"a/g/ g/>g/ | c'>b | "F7"a/>g/ f/e/ | [L:1/8] "Bb"dg fg/f/ | "F7"a>g ec | "Bb"BB Bz :: 
"Eb"b/b/b ag | "Bb"g>f fd | "F7"f>e gc | "Bb"ed/d/ fB | "Eb"b/b/b ag | "Bb"g>f fd | "F7"f>e dc | "Bb"BB Bz :| 

